X:17
T:The Ace & Deuce Of Pipering
C:Traditional
R:Set Dance
M:C
L:1/8
Q:1/4=80
K:D
|: d=c | B2 =cA BGcA | BG=cA B2 AG | d2 ec d2 ec |
dfec dcBA | e2 fd edcB | Adde d=cBA | 
BG=cA B2 AG | FGAB =cBcA | G2 ge fd=cA | 
FGAB =cAFG | AGGF G2 FG | AGGF G2 :|
|: F | G2 =f2 e2 f2 | G2 =fe fd=cA | G2 g2 f2 g2 |
d2 ga gfdc | A2 =f2 e2 f2 | dcde f3 g |
agfa gfde | fd=cA BGAF | G2 ge fd=cA |
FGAB =cAFG | AGGF G2 FG | AGGF G3 :|



